X:1
T:Morna, CM
T:Morna, CM
T:Clement Hamill Perrot (1842-1910)
T:Public Domain Courtesy of the Cyber Hymnal™
C:Clement Hamill Perrot (1842-1910)
Z:Public Domain
Z:Courtesy of the Cyber Hymnal™
%%score ( 1 2 ) ( 3 4 )
L:1/8
Q:1/4=108
M:4/4
K:Eb
V:1 treble 
V:2 treble 
V:3 bass 
V:4 bass 
V:1
 [EG]2 | [EA]2 [EG]2 [EF]2 [Ec]2 | [Dc]3 [DB] [EB]2 [EB]2 x | [Ee]2 [Ge]2 [Fd]2 [Ec]2 | %4
 [DB]6 [DB]2 | [EB]2 [EB]2 [EB]2 [EB]2 | [EB]2 [GB]2 [FB]2 [FA]2 | [EG]2 [B,E]2 [DF]3 E | E6 |] %9
V:2
 x2 | x8 | x9 | x8 | x8 | x8 | x8 | x7 E | E6 |] %9
V:3
 [E,B,]2 | [E,C]2 [F,B,]2 [F,=A,]2 [E,A,]2 | A,3 z A, [E,G,]2 [D,F,]2 | %3
 [C,G,]2 [C,B,]2 [F,=A,]2 [F,A,]2 | [B,,B,]6 [B,,A,]2 | [E,G,]2 [E,G,]2 [F,A,]2 [F,A,]2 | %6
 [G,B,]2 [G,E]2 [A,C]2 [A,C]2 | B,2 [B,,G,]2 [B,,A,]3 [E,G,] | [E,G,]6 |] %9
V:4
 x2 | x8 | E,2 E,2 x5 | x8 | x8 | x8 | x8 | B,2 x6 | x6 |] %9

